X: 49011
T: Hazel's Singapore Sling
C: Nicol McLaren
R: jig
B: RSCDS 49-1
Z: 2015 by John Chambers <jc:trillian.mit.edu>
N: Tune for the dance Neil M Grant
M: 6/8
L: 1/8
K: D
AG |\
"D"F<AD "F#/D7"FGA | "G"G2B "D/G"dBG | "D"AFA "Bm7"def | "E7"eEE "A7"EAG |\
"D"F<AD "F#/D7"FGA | "G"GBE "G#dim"dcB | "A/D"Adf "A7"edc | "D"d3 d :|
fg |\
"D"afd "A7"ecA | "D7"ded "G"BAG | "D7"FAD "G"BAG | "Em7"FEE "A7"Efg |\
"D"afd "E/A"ecA | "F#/D"ded "G"BAG | "A/D"FAd "A7"ede | "D"fdd d ||
fg |\
"D"afd "A7"ecA | "D7"ded "G"BAG | "D7"FAD "G"BAG | "E7"FEE "A7"EAG |\
"D"F<AD "F#/D"FGA | "G"GBE "G#dim"dcB | "A/D"Adf "A7"edc | "D"d3 d |]
